X: 36258
T: Seal Skin
R: polka
M: 2/4
K: Gmajor
|:G>A BB|AG g>e|dB AG|A2 A B/A/|
G>A BB|AG g>e|dB A B/A/|G2 G2:|
g>f eg|dG Bd|cA Ac|BG Bd|
g>f eg|dG Bd|ec AF|G>A Bd|
g>f eg|dG Bd|cA Ac|BG GF|
G>A BB|AG g>e|dB A B/A/|G2 G2||

